X:1
T:Tijuana, 87.87.77.77
T:Tijuana, 87.87.77.77
T:J. Howard Entwisle, 1885
T:Public Domain Courtesy of the Cyber Hymnal™
C:J. Howard Entwisle, 1885
Z:Public Domain
Z:Courtesy of the Cyber Hymnal™
%%score ( 1 2 ) ( 3 4 )
L:1/8
Q:1/4=90
M:3/4
K:F
V:1 treble 
V:2 treble 
V:3 bass 
V:4 bass 
V:1
 [FA]>F | [FB]3 [FA] [CG]>[CF] | [FA]2 [EG]2 [EG]>[FA] | [GB]3 [EG] [FA]>[Fd] | [Fc]4 [FA]>F | %5
 [FB]3 [FA] [CG]>[CF] | [FA]2 [EG]2 [EG]>[FA] | [Ac][GB] [FA]2 [EG]2 | F4 [Fc]>[Fc] | %9
 [Fd]3 [Fd] [FB]>[Fd] | [Fc]4 [Fc]>[Fc] | [Fd][Fd] [Fc]2 [FA]2 | [EG]4 [Ec]>[Ec] | %13
 [Fc]3 [FA] [FB]>[Fc] | [Fd]4 [Ff]>[Fd] | [Fc]3 [FA] [CG]>[CF] | [CF]4 |] %17
V:2
 x3/2 F/ | x6 | x6 | x6 | x11/2 F/ | x6 | x6 | x6 | F4 x2 | x6 | x6 | x6 | x6 | x6 | x6 | x6 | %16
 x4 |] %17
V:3
 [F,C]>[F,A,] | [F,D]3 [F,C] [F,B,]>[F,A,] | [C,C]2 [C,C]2 [C,C]>[C,C] | %3
 [C,C]3 [C,C] [F,C]>[F,B,] | [F,A,]4 [F,C]>[F,A,] | [F,D]3 [F,C] [F,B,]>[F,A,] | %6
 [C,C]2 [C,C]2 [C,C]>[C,C] | [C,C][C,C] [C,C]2 [C,B,]2 | [F,A,]4 [F,A,]>[F,A,] | %9
 [B,,B,]3 [B,,B,] [B,,D]>[B,,B,] | [F,A,]4 [F,A,]>[F,A,] | B,B, [A,C]2 [F,C]2 | %12
 [C,C]4 [C,G,]>[C,A,] | [F,A,]3 [_E,C] [D,B,]>[C,A,] | [B,,B,]4 [B,,D]>[B,,B,] | %15
 [C,A,]3 [C,C] [C,B,]>[F,A,] | [F,A,]4 |] %17
V:4
 x2 | x6 | x6 | x6 | x6 | x6 | x6 | x6 | x6 | x6 | x6 | B,B, x4 | x6 | x6 | x6 | x6 | x4 |] %17

